X: 13744
T: Forester's
R: hornpipe
M: 4/4
K: Dmajor
|:fg|a^gaf dfba|a^gaf .d2 (cd)|eAfA eAfA|edcB .A2 (fg)|
a^gaf dfba|a^gaf .d2 (cd)|BGFG Adce|f2 d2 d2:|
|:cd|edcB AGEG|FAdf .a2 (fa)|geBg fdAf|edcB .A2 (cd)|
edcB AGEG|FAdf afba|gfed cABc|d2 f2 d2:|

